svg/white/meetone.svg

<?xml version="1.0" encoding="UTF-8"?>
<svg width="32px" height="32px" viewBox="0 0 32 32" version="1.1" xmlns="http://www.w3.org/2000/svg" xmlns:xlink="http://www.w3.org/1999/xlink">
    <!-- Generator: Sketch 53 (72520) - https://sketchapp.com -->
    <title>svg/white/meetone</title>
    <desc>Created with Sketch.</desc>
    <g id="white/meetone" stroke="none" stroke-width="1" fill="none" fill-rule="evenodd">
        <path d="M16,32 C7.163444,32 0,24.836556 0,16 C0,7.163444 7.163444,0 16,0 C24.836556,0 32,7.163444 32,16 C32,24.836556 24.836556,32 16,32 Z M9.91596551,21.378998 C10.343164,19.4517158 10.7703625,17.4784908 11.197561,15.5560976 C11.3097561,15.1073171 11.4219512,14.602439 11.5341463,14.0414634 C11.5902439,14.2658537 11.5902439,14.3219512 11.6463415,14.4341463 C12.6541566,17.745539 13.703028,21.0569317 14.7578323,24.3683244 L9.91596551,21.378998 Z M17.1501883,24.4271153 C17.1672413,24.3689324 17.183878,24.3103334 17.2,24.2512195 C18.2658537,20.997561 19.2756098,17.7439024 20.3414634,14.4902439 C20.397561,14.3780488 20.4536585,14.2097561 20.5097561,14.0414634 C20.5658537,14.2097561 20.6219512,14.2658537 20.6219512,14.3780488 C21.0961667,16.6964356 21.6198727,18.9653318 22.1465845,21.2312223 L17.1501883,24.4271153 Z M22.7660836,22.3580297 C22.8481244,22.3753221 22.9377552,22.3714428 23.0341463,22.3439024 C23.4268293,22.2317073 23.595122,21.895122 23.4829268,21.3902439 C22.9780488,19.2585366 22.5292683,17.0707317 22.0243902,14.9390244 C21.7439024,13.8170732 21.5195122,12.6390244 21.2390244,11.5170732 C21.202796,11.3359313 21.0963777,11.1781861 20.9348792,11.0891669 L20.9585366,11.0682927 L16.4707317,4.33658537 C16.4707317,4.33658537 16.0780488,3.83170732 15.4609756,4.33658537 L10.8609756,11.2365854 L10.9256432,11.2704589 C10.8504365,11.3762563 10.7914823,11.5145587 10.7487805,11.6853659 C10.6926829,12.1341463 10.5804878,12.5829268 10.4682927,13.0317073 C9.85121951,15.8365854 9.17804878,18.6414634 8.56097561,21.4463415 C8.50487805,21.7829268 8.56097561,22.0634146 8.84146341,22.2317073 C8.96487854,22.3088418 9.08829367,22.3435521 9.2047088,22.3416717 L15.350517,26.2075833 C15.4744693,26.4855772 15.6795815,26.6073171 15.9658537,26.6073171 C16.1861006,26.6073171 16.3583076,26.535257 16.4824745,26.3754192 L22.7660836,22.3580297 Z M19.9233101,11.788537 C19.8944018,11.8897023 19.8654936,11.9913241 19.8365854,12.0780488 C18.8268293,15.2195122 17.8170732,18.4170732 16.8073171,21.5585366 C16.5829268,22.3439024 16.302439,23.0731707 16.0780488,23.8585366 C16.0219512,23.8585366 16.0219512,23.8585366 15.9097561,23.8585366 C14.6813308,19.8382356 13.3973268,15.7623559 12.1130652,11.7415396 L15.9658537,5.90731707 L19.9233101,11.788537 Z" id="Combined-Shape" fill="#FFFFFF" fill-rule="nonzero"></path>
    </g>
</svg>

<svg width="32" height="32" viewBox="0 0 32 32" xmlns="http://www.w3.org/2000/svg"><path d="M16 32C7.163 32 0 24.837 0 16S7.163 0 16 0s16 7.163 16 16-7.163 16-16 16zM9.916 21.379c.427-1.927.854-3.9 1.282-5.823.112-.449.224-.954.336-1.515.056.225.056.281.112.393a805.586 805.586 0 0 0 3.112 9.934L9.916 21.38zm7.234 3.048l.05-.176c1.066-3.253 2.076-6.507 3.141-9.76.057-.113.113-.281.169-.45.056.169.112.225.112.337.474 2.318.998 4.587 1.525 6.853l-4.997 3.196zm5.616-2.069a.553.553 0 0 0 .268-.014c.393-.112.561-.449.449-.954-.505-2.131-.954-4.32-1.459-6.451-.28-1.122-.504-2.3-.785-3.422a.62.62 0 0 0-.304-.428l.024-.02-4.488-6.732s-.393-.505-1.01 0l-4.6 6.9.065.033a1.227 1.227 0 0 0-.177.415c-.056.45-.169.898-.28 1.347-.618 2.805-1.291 5.61-1.908 8.414-.056.337 0 .617.28.786a.664.664 0 0 0 .364.11l6.146 3.866c.123.278.329.4.615.4.22 0 .392-.073.516-.233l6.284-4.017zm-2.843-10.57a9.214 9.214 0 0 1-.086.29c-1.01 3.142-2.02 6.34-3.03 9.48-.224.786-.505 1.515-.729 2.3h-.168c-1.229-4.02-2.513-8.096-3.797-12.116l3.853-5.835 3.957 5.882z" fill="#FFF"/></svg>
